assets/images/love_text.svg

<?xml version="1.0" encoding="UTF-8" standalone="no"?>
<svg
   width="113"
   height="99"
   viewBox="0 0 113 99"
   fill="none"
   version="1.1"
   id="svg1"
   xmlns="http://www.w3.org/2000/svg"
   xmlns:svg="http://www.w3.org/2000/svg">
  <defs
     id="defs1" />
  <path
     d="m 103.258,47.8461 c 0.547,-1.0558 1.085,-1.5248 1.612,-1.4072 0.492,0.1019 0.614,0.5831 0.363,1.4435 l -0.279,0.7432 c -0.428,0.8409 -0.87,1.6444 -1.325,2.4103 -0.431,0.7566 -0.992,1.661 -1.683,2.7131 -0.7,1.0271 -1.426,1.9074 -2.1783,2.6409 -0.7521,0.7335 -1.5616,1.3887 -2.4286,1.9656 -0.8762,0.552 -1.7949,0.8354 -2.7563,0.8501 -0.9706,-0.0102 -1.9338,-0.3076 -2.8896,-0.892 -0.9308,-0.5938 -1.6064,-1.3815 -2.0268,-2.3633 -0.4204,-0.9817 -0.5987,-2.039 -0.5347,-3.1717 0.064,-1.1327 0.2229,-2.201 0.4767,-3.205 0.2696,-1.0382 0.6327,-2.0542 1.0893,-3.0479 0.6299,-1.3707 1.4654,-2.647 2.5065,-3.8287 1.6274,-1.8254 2.7244,-1.8193 3.2911,0.0182 0.4464,1.5125 0.3434,3.3847 -0.3087,5.6168 -0.6614,2.207 -1.6057,4.1491 -2.833,5.8264 0.4325,0.3232 0.8919,0.5655 1.3781,0.7266 2.9304,0.8486 5.7723,-1.4977 8.5263,-7.0389 z m -11.3614,0.8802 c -0.3391,1.2346 -0.2817,2.4645 0.172,3.6899 0.2918,-0.364 0.6739,-1.06 1.1463,-2.088 0.4724,-1.028 0.8059,-2.0473 1.0004,-3.0577 0.2103,-1.0447 0.102,-1.6444 -0.325,-1.7991 -0.2899,-0.0917 -0.5872,0.1037 -0.8919,0.5862 -0.3048,0.4825 -0.5377,0.9669 -0.6989,1.4531 -0.1704,0.4612 -0.3048,0.8664 -0.4029,1.2156 z"
     fill="#b50015"
     id="path5"
     style="display:inline" />
  <path
     d="m 89.7926,47.9698 c 0.1417,-0.3084 0.3552,-0.231 0.6405,0.2321 0.4278,0.6946 0.4908,1.3254 0.1888,1.8922 -0.3557,0.7288 -0.7795,1.3123 -1.2713,1.7504 -0.4668,0.4288 -0.9595,0.7107 -1.4782,0.8459 -0.5187,0.1352 -1.0322,0.169 -1.5407,0.1014 -0.5085,-0.0677 -1.0368,-0.2275 -1.5851,-0.4794 -0.0139,0.3464 -0.0454,0.7988 -0.0945,1.3573 -0.0492,0.5585 -0.0881,0.9141 -0.1168,1.0669 -0.0037,0.1436 -0.0158,0.4182 -0.0362,0.8239 -0.0269,0.4649 -0.0486,0.8284 -0.0653,1.0905 0.0083,0.2529 -0.02,0.6757 -0.0848,1.2684 -0.0492,0.5585 -0.0932,1.0155 -0.1321,1.3712 -0.0482,0.3306 -0.1126,0.8095 -0.1932,1.4365 -0.0806,0.627 -0.1746,1.1026 -0.2821,1.4267 -0.0824,0.3149 -0.1903,0.753 -0.3237,1.3143 -0.1427,0.5362 -0.2909,0.9039 -0.4447,1.103 -0.1537,0.1991 -0.3468,0.4839 -0.5793,0.8544 -0.2075,0.3612 -0.4377,0.5459 -0.6905,0.5542 -0.2371,-0.0259 -0.5103,0.0042 -0.8197,0.0903 -0.3214,-0.0232 -0.6502,-0.1431 -0.9863,-0.3599 -0.3112,-0.226 -0.5803,-0.4534 -0.8072,-0.6821 -0.2019,-0.2381 -0.4408,-0.5762 -0.7168,-1.0142 -0.2509,-0.4474 -0.4306,-0.779 -0.5389,-0.9948 -0.1177,-0.2408 -0.2941,-0.602 -0.5293,-1.0836 -0.2195,-0.5159 -0.3385,-0.7989 -0.357,-0.8489 -0.0898,-0.1658 -0.2121,-0.4191 -0.3667,-0.7599 -0.1389,-0.3751 -0.2857,-0.7331 -0.4403,-1.074 -0.1297,-0.3501 -0.3075,-0.7534 -0.5335,-1.21 -0.2102,-0.4909 -0.4144,-0.9271 -0.6125,-1.3087 -0.1982,-0.3816 -0.426,-0.7665 -0.6835,-1.1546 -0.2417,-0.4223 -0.476,-0.7479 -0.7029,-0.9766 -0.2362,-0.2538 -0.4881,-0.4733 -0.7557,-0.6586 -0.2677,-0.1852 -0.5187,-0.2487 -0.753,-0.1904 -0.2343,0.0584 -0.4876,0.1806 -0.7599,0.3668 -0.1473,0.1398 -0.3613,0.1764 -0.6419,0.1097 -0.3149,-0.0825 -0.6108,-0.2288 -0.8877,-0.4391 -0.3112,-0.226 -0.602,-0.4737 -0.8724,-0.7433 -0.2704,-0.2695 -0.4473,-0.5168 -0.5307,-0.7419 -0.0926,-0.25 -0.0949,-0.4482 -0.0069,-0.5946 0.4604,-0.3695 0.9031,-0.633 1.3282,-0.7904 0.4001,-0.1481 0.8215,-0.162 1.2642,-0.0416 0.4677,0.1112 0.8993,0.2784 1.2948,0.5016 0.4112,0.189 0.8127,0.4668 1.2044,0.8336 0.4168,0.3575 0.7743,0.7086 1.0725,1.0531 0.3232,0.3353 0.626,0.6924 0.9085,1.0712 1.2567,1.7811 2.3226,3.6613 3.1978,5.6406 0.0926,0.25 0.2518,0.6034 0.4778,1.06 0.226,0.4566 0.3806,0.7974 0.464,1.0225 0.6243,-1.5392 0.9508,-2.3853 0.9795,-2.5381 0.3919,-1.9366 0.6777,-3.8908 0.8575,-5.8626 0.0297,-0.3807 0.0121,-1.0424 -0.0527,-1.9853 -0.0397,-0.9521 -0.0416,-1.6481 -0.0054,-2.088 -0.4408,-0.5761 -0.7288,-1.1235 -0.864,-1.6422 -0.1195,-0.5529 -0.0102,-0.9488 0.3279,-1.1878 0.3538,-0.2732 0.766,-0.3121 1.2364,-0.1166 0.4955,0.1862 0.9266,0.4673 1.2934,0.8433 0.3667,0.3761 0.6446,0.7424 0.8335,1.099 0.2259,0.4566 0.3815,0.9535 0.4667,1.4907 0.8799,0.0723 1.8574,-0.0907 2.9327,-0.4889 1.1004,-0.4074 1.8251,-0.946 2.1743,-1.6156 z"
     fill="#b50015"
     id="path2"
     style="display:inline" />
  <path
     d="m 72.2633,51.5606 c 0.4826,-0.4631 0.773,-0.4853 0.8711,-0.0667 0.138,0.603 -0.0279,1.4606 -0.4975,2.5729 -0.1889,0.4112 -0.3696,0.6914 -0.5418,0.8405 -1.9053,1.843 -3.9286,3.559 -6.07,5.1482 1.5346,1.7636 2.1694,3.7465 1.9044,5.9489 -0.24,2.1932 -1.2173,4.1617 -2.9317,5.9056 -0.8901,0.8984 -1.8913,1.4966 -3.0037,1.7948 -1.1216,0.2731 -2.2172,0.3092 -3.287,0.1082 -1.0697,-0.2011 -2.0884,-0.6485 -3.0563,-1.3422 -0.977,-0.7188 -1.7614,-1.6084 -2.3532,-2.6689 -0.8335,-1.4829 -1.1043,-3.1741 -0.8124,-5.0736 0.2918,-1.8996 0.8925,-3.7714 1.8021,-5.6153 0.0723,-0.1121 0.2098,-0.163 0.4126,-0.1528 0.2891,-1.2161 0.9236,-2.1904 1.9035,-2.9229 0.4881,-0.2945 1.0443,-0.4436 1.6685,-0.4473 0.6243,-0.0036 1.2698,0.127 1.9366,0.3919 0.6576,0.2399 1.2962,0.5437 1.9158,0.9115 0.6195,0.3677 1.228,0.7822 1.8254,1.2435 3.0351,-1.8633 5.8064,-4.0554 8.3136,-6.5763 z m -9.8238,7.2208 c -0.526,-0.3455 -1.0965,-0.5039 -1.7115,-0.4752 -0.6243,0.0036 -1.1883,0.1699 -1.6922,0.4986 1.1373,0.4604 2.2719,0.4526 3.4037,-0.0234 z m -0.748,11.1112 c 1.1309,-1.0159 2.046,-2.3074 2.7454,-3.8745 0.7243,-1.5763 0.9082,-3.0377 0.5517,-4.3844 -0.0833,-0.2251 -0.1791,-0.4455 -0.2875,-0.6613 -3.502,2.2921 -6.1666,2.8522 -7.9939,1.6805 -0.5798,1.3522 -0.9633,2.7739 -1.1505,4.265 -0.0871,0.6863 -0.1348,1.2869 -0.1432,1.8019 0.0074,0.4806 0.1426,0.9993 0.4056,1.5559 0.263,0.5567 0.6797,0.9142 1.2502,1.0726 1.7903,0.3039 3.331,-0.1813 4.6222,-1.4557 z"
     fill="#b50015"
     id="path1"
     style="display:inline" />
  <path
     d="m 79.4606,71.289 c 0.4918,-0.4381 0.7868,-0.4478 0.885,-0.0292 0.1472,0.628 -0.0265,1.5027 -0.5211,2.6243 -0.1732,0.377 -0.346,0.64 -0.5183,0.7891 -1.971,1.8958 -4.1689,3.5627 -6.5937,5.001 -2.4247,1.4382 -4.9093,2.5999 -7.4535,3.4852 -2.51,0.901 -5.1862,1.6219 -8.0286,2.1626 -2.8175,0.5315 -5.5905,0.8759 -8.319,1.0332 -2.7285,0.1573 -5.5251,0.1692 -8.3897,0.0356 -2.7167,4.1056 -6.6326,5.7405 -11.7478,4.9049 -0.9169,-0.1724 -1.8537,-0.4368 -2.8105,-0.7935 -0.9317,-0.3658 -1.8629,-0.8457 -2.7937,-1.4394 -0.9057,-0.603 -1.6332,-1.3004 -2.1824,-2.0923 -0.5334,-0.8262 -0.851,-1.7607 -0.9529,-2.8036 -0.1731,-1.1586 0.1011,-2.1844 0.8226,-3.0772 0.7373,-0.927 1.6992,-1.4396 2.8856,-1.5377 0.6057,-0.0537 1.3467,0.0274 2.2228,0.2432 0.9012,0.2066 1.8505,0.4665 2.8479,0.7796 1.0225,0.3038 1.7755,0.4942 2.259,0.5711 2.9192,0.5114 5.8672,0.87 8.8439,1.0757 0.0343,0.0158 0.0685,0.0315 0.1028,0.0473 0.05,-0.0185 0.0875,-0.0324 0.1125,-0.0417 0.3094,-0.8539 0.5628,-1.7439 0.7601,-2.6701 0.5068,-2.5479 0.9033,-5.2398 1.1897,-8.0757 0.302,-2.8702 0.5018,-5.5176 0.5992,-7.9423 0.1131,-2.459 0.1077,-5.3149 -0.0162,-8.5676 -0.1332,-3.2777 -0.2688,-5.9859 -0.4066,-8.1244 -0.1379,-2.1385 -0.3962,-4.9861 -0.7748,-8.5426 -0.3786,-3.5565 -0.6767,-6.2044 -0.8942,-7.9438 -0.2269,-1.7644 -0.5777,-4.4781 -1.0526,-8.1411 -0.0787,-0.5965 0.2492,-1.4004 0.9837,-2.4117 0.7595,-1.0206 1.2476,-1.3151 1.4643,-0.8835 0.0278,0.075 0.0477,0.1672 0.0597,0.2765 1.0036,7.9318 1.7565,16.454 2.259,25.5666 0.0351,0.5557 0.1351,2.0543 0.2998,4.4957 0.1647,2.4414 0.2952,4.4831 0.3914,6.1252 0.0963,1.6421 0.1605,3.8506 0.1928,6.6254 0.023,2.7498 -0.0448,5.1778 -0.2033,7.2839 -0.1335,2.0968 -0.4096,4.346 -0.8283,6.7475 -0.3938,2.3923 -0.9237,4.4938 -1.5897,6.3044 3.7167,0.1308 7.433,-0.0084 11.1488,-0.4176 C 64.759,80.6573 73.3411,77.1096 79.4606,71.289 Z M 29.3673,87.0237 c 3.6509,0.9514 6.3924,0.6756 8.2245,-0.8275 -1.9033,-0.1483 -3.7112,-0.3461 -5.4237,-0.5935 -2.0338,-0.2706 -4.058,-0.63 -6.0724,-1.0784 -0.212,-0.0352 -0.5177,-0.0927 -0.9169,-0.1723 -0.3834,-0.114 -0.6219,-0.1821 -0.7154,-0.2043 1.3706,1.3977 3.0053,2.3563 4.9039,2.876 z"
     fill="#b50015"
     id="path4"
     style="display:inline" />
</svg>

<svg width="113" height="99" viewBox="0 0 113 99" fill="none" xmlns="http://www.w3.org/2000/svg">
<path d="M79.4606 71.289C79.9524 70.8509 80.2474 70.8412 80.3456 71.2598C80.4928 71.8878 80.3191 72.7625 79.8245 73.8841C79.6513 74.2611 79.4785 74.5241 79.3062 74.6732C77.3352 76.569 75.1373 78.2359 72.7125 79.6742C70.2878 81.1124 67.8032 82.2741 65.259 83.1594C62.749 84.0604 60.0728 84.7813 57.2304 85.322C54.4129 85.8535 51.6399 86.1979 48.9114 86.3552C46.1829 86.5125 43.3863 86.5244 40.5217 86.3908C37.805 90.4964 33.8891 92.1313 28.7739 91.2957C27.857 91.1233 26.9202 90.8589 25.9634 90.5022C25.0317 90.1364 24.1005 89.6565 23.1697 89.0628C22.264 88.4598 21.5365 87.7624 20.9873 86.9705C20.4539 86.1443 20.1363 85.2098 20.0344 84.1669C19.8613 83.0083 20.1355 81.9825 20.857 81.0897C21.5943 80.1627 22.5562 79.6501 23.7426 79.552C24.3483 79.4983 25.0893 79.5794 25.9654 79.7952C26.8666 80.0018 27.8159 80.2617 28.8133 80.5748C29.8358 80.8786 30.5888 81.069 31.0723 81.1459C33.9915 81.6573 36.9395 82.0159 39.9162 82.2216C39.9505 82.2374 39.9847 82.2531 40.019 82.2689C40.069 82.2504 40.1065 82.2365 40.1315 82.2272C40.4409 81.3733 40.6943 80.4833 40.8916 79.5571C41.3984 77.0092 41.7949 74.3173 42.0813 71.4814C42.3833 68.6112 42.5831 65.9638 42.6805 63.5391C42.7936 61.0801 42.7882 58.2242 42.6643 54.9715C42.5311 51.6938 42.3955 48.9856 42.2577 46.8471C42.1198 44.7086 41.8615 41.861 41.4829 38.3045C41.1043 34.748 40.8062 32.1001 40.5887 30.3607C40.3618 28.5963 40.011 25.8826 39.5361 22.2196C39.4574 21.6231 39.7853 20.8192 40.5198 19.8079C41.2793 18.7873 41.7674 18.4928 41.9841 18.9244C42.0119 18.9994 42.0318 19.0916 42.0438 19.2009C43.0474 27.1327 43.8003 35.6549 44.3028 44.7675C44.3379 45.3232 44.4379 46.8218 44.6026 49.2632C44.7673 51.7046 44.8978 53.7463 44.994 55.3884C45.0903 57.0305 45.1545 59.239 45.1868 62.0138C45.2098 64.7636 45.142 67.1916 44.9835 69.2977C44.85 71.3945 44.5739 73.6437 44.1552 76.0452C43.7614 78.4375 43.2315 80.539 42.5655 82.3496C46.2822 82.4804 49.9985 82.3412 53.7143 81.932C64.759 80.6573 73.3411 77.1096 79.4606 71.289ZM29.3673 87.0237C33.0182 87.9751 35.7597 87.6993 37.5918 86.1962C35.6885 86.0479 33.8806 85.8501 32.1681 85.6027C30.1343 85.3321 28.1101 84.9727 26.0957 84.5243C25.8837 84.4891 25.578 84.4316 25.1788 84.352C24.7954 84.238 24.5569 84.1699 24.4634 84.1477C25.834 85.5454 27.4687 86.504 29.3673 87.0237ZM72.2633 51.5606C72.7459 51.0975 73.0363 51.0753 73.1344 51.4939C73.2724 52.0969 73.1065 52.9545 72.6369 54.0668C72.448 54.478 72.2673 54.7582 72.0951 54.9073C70.1898 56.7503 68.1665 58.4663 66.0251 60.0555C67.5597 61.8191 68.1945 63.802 67.9295 66.0044C67.6895 68.1976 66.7122 70.1661 64.9978 71.91C64.1077 72.8084 63.1065 73.4066 61.9941 73.7048C60.8725 73.9779 59.7769 74.014 58.7071 73.813C57.6374 73.6119 56.6187 73.1645 55.6508 72.4708C54.6738 71.752 53.8894 70.8624 53.2976 69.8019C52.4641 68.319 52.1933 66.6278 52.4852 64.7283C52.777 62.8287 53.3777 60.9569 54.2873 59.113C54.3596 59.0009 54.4971 58.95 54.6999 58.9602C54.989 57.7441 55.6235 56.7698 56.6034 56.0373C57.0915 55.7428 57.6477 55.5937 58.2719 55.59C58.8962 55.5864 59.5417 55.717 60.2085 55.9819C60.8661 56.2218 61.5047 56.5256 62.1243 56.8934C62.7438 57.2611 63.3523 57.6756 63.9497 58.1369C66.9848 56.2736 69.7561 54.0815 72.2633 51.5606ZM62.4395 58.7814C61.9135 58.4359 61.343 58.2775 60.728 58.3062C60.1037 58.3098 59.5397 58.4761 59.0358 58.8048C60.1731 59.2652 61.3077 59.2574 62.4395 58.7814ZM61.6915 69.8926C62.8224 68.8767 63.7375 67.5852 64.4369 66.0181C65.1612 64.4418 65.3451 62.9804 64.9886 61.6337C64.9053 61.4086 64.8095 61.1882 64.7011 60.9724C61.1991 63.2645 58.5345 63.8246 56.7072 62.6529C56.1274 64.0051 55.7439 65.4268 55.5567 66.9179C55.4696 67.6042 55.4219 68.2048 55.4135 68.7198C55.4209 69.2004 55.5561 69.7191 55.8191 70.2757C56.0821 70.8324 56.4988 71.1899 57.0693 71.3483C58.8596 71.6522 60.4003 71.167 61.6915 69.8926ZM89.7926 47.9698C89.9343 47.6614 90.1478 47.7388 90.4331 48.2019C90.8609 48.8965 90.9239 49.5273 90.6219 50.0941C90.2662 50.8229 89.8424 51.4064 89.3506 51.8445C88.8838 52.2733 88.3911 52.5552 87.8724 52.6904C87.3537 52.8256 86.8402 52.8594 86.3317 52.7918C85.8232 52.7241 85.2949 52.5643 84.7466 52.3124C84.7327 52.6588 84.7012 53.1112 84.6521 53.6697C84.6029 54.2282 84.564 54.5838 84.5353 54.7366C84.5316 54.8802 84.5195 55.1548 84.4991 55.5605C84.4722 56.0254 84.4505 56.3889 84.4338 56.651C84.4421 56.9039 84.4138 57.3267 84.349 57.9194C84.2998 58.4779 84.2558 58.9349 84.2169 59.2906C84.1687 59.6212 84.1043 60.1001 84.0237 60.7271C83.9431 61.3541 83.8491 61.8297 83.7416 62.1538C83.6592 62.4687 83.5513 62.9068 83.4179 63.4681C83.2752 64.0043 83.127 64.372 82.9732 64.5711C82.8195 64.7702 82.6264 65.055 82.3939 65.4255C82.1864 65.7867 81.9562 65.9714 81.7034 65.9797C81.4663 65.9538 81.1931 65.9839 80.8837 66.07C80.5623 66.0468 80.2335 65.9269 79.8974 65.7101C79.5862 65.4841 79.3171 65.2567 79.0902 65.028C78.8883 64.7899 78.6494 64.4518 78.3734 64.0138C78.1225 63.5664 77.9428 63.2348 77.8345 63.019C77.7168 62.7782 77.5404 62.417 77.3052 61.9354C77.0857 61.4195 76.9667 61.1365 76.9482 61.0865C76.8584 60.9207 76.7361 60.6674 76.5815 60.3266C76.4426 59.9515 76.2958 59.5935 76.1412 59.2526C76.0115 58.9025 75.8337 58.4992 75.6077 58.0426C75.3975 57.5517 75.1933 57.1155 74.9952 56.7339C74.797 56.3523 74.5692 55.9674 74.3117 55.5793C74.07 55.157 73.8357 54.8314 73.6088 54.6027C73.3726 54.3489 73.1207 54.1294 72.8531 53.9441C72.5854 53.7589 72.3344 53.6954 72.1001 53.7537C71.8658 53.8121 71.6125 53.9343 71.3402 54.1205C71.1929 54.2603 70.9789 54.2969 70.6983 54.2302C70.3834 54.1477 70.0875 54.0014 69.8106 53.7911C69.4994 53.5651 69.2086 53.3174 68.9382 53.0478C68.6678 52.7783 68.4909 52.531 68.4075 52.3059C68.3149 52.0559 68.3126 51.8577 68.4006 51.7113C68.861 51.3418 69.3037 51.0783 69.7288 50.9209C70.1289 50.7728 70.5503 50.7589 70.993 50.8793C71.4607 50.9905 71.8923 51.1577 72.2878 51.3809C72.699 51.5699 73.1005 51.8477 73.4922 52.2145C73.909 52.572 74.2665 52.9231 74.5647 53.2676C74.8879 53.6029 75.1907 53.96 75.4732 54.3388C76.7299 56.1199 77.7958 58.0001 78.671 59.9794C78.7636 60.2294 78.9228 60.5828 79.1488 61.0394C79.3748 61.496 79.5294 61.8368 79.6128 62.0619C80.2371 60.5227 80.5636 59.6766 80.5923 59.5238C80.9842 57.5872 81.27 55.633 81.4498 53.6612C81.4795 53.2805 81.4619 52.6188 81.3971 51.6759C81.3574 50.7238 81.3555 50.0278 81.3917 49.5879C80.9509 49.0118 80.6629 48.4644 80.5277 47.9457C80.4082 47.3928 80.5175 46.9969 80.8556 46.7579C81.2094 46.4847 81.6216 46.4458 82.092 46.6413C82.5875 46.8275 83.0186 47.1086 83.3854 47.4846C83.7521 47.8607 84.03 48.227 84.2189 48.5836C84.4448 49.0402 84.6004 49.5371 84.6856 50.0743C85.5655 50.1466 86.543 49.9836 87.6183 49.5854C88.7187 49.178 89.4434 48.6394 89.7926 47.9698ZM103.258 47.8461C103.805 46.7903 104.343 46.3213 104.87 46.4389C105.362 46.5408 105.484 47.022 105.233 47.8824L104.954 48.6256C104.526 49.4665 104.084 50.27 103.629 51.0359C103.198 51.7925 102.637 52.6969 101.946 53.749C101.246 54.7761 100.52 55.6564 99.7677 56.3899C99.0156 57.1234 98.2061 57.7786 97.3391 58.3555C96.4629 58.9075 95.5442 59.1909 94.5828 59.2056C93.6122 59.1954 92.649 58.898 91.6932 58.3136C90.7624 57.7198 90.0868 56.9321 89.6664 55.9503C89.246 54.9686 89.0677 53.9113 89.1317 52.7786C89.1957 51.6459 89.3546 50.5776 89.6084 49.5736C89.878 48.5354 90.2411 47.5194 90.6977 46.5257C91.3276 45.155 92.1631 43.8787 93.2042 42.697C94.8316 40.8716 95.9286 40.8777 96.4953 42.7152C96.9417 44.2277 96.8387 46.0999 96.1866 48.332C95.5252 50.539 94.5809 52.4811 93.3536 54.1584C93.7861 54.4816 94.2455 54.7239 94.7317 54.885C97.6621 55.7336 100.504 53.3873 103.258 47.8461ZM91.8966 48.7263C91.5575 49.9609 91.6149 51.1908 92.0686 52.4162C92.3604 52.0522 92.7425 51.3562 93.2149 50.3282C93.6873 49.3002 94.0208 48.2809 94.2153 47.2705C94.4256 46.2258 94.3173 45.6261 93.8903 45.4714C93.6004 45.3797 93.3031 45.5751 92.9984 46.0576C92.6936 46.5401 92.4607 47.0245 92.2995 47.5107C92.1291 47.9719 91.9947 48.3771 91.8966 48.7263Z" fill="#B50015"/>
</svg>
